X: 1
T: BLAYDON RACES
S: "Community Dances Manual 5", EFDSS, Michael Bell ed., 1957 p.3
R: jig
Z: 2010 John Chambers <jc:trillian.mit.edu>
M: 6/8
L: 1/8
K: G
D |\
"G"G2G G2G | "G"G2G G2G |:\
"D7"A2A A2A | "G"B3 G2G | "C"c2c c2c |
"G"B2B B2B | "Am"A2B A2G | "D"F3 "D7"D2D |\
"G"G2G G2G | G2G G2G | "D7"A2A A2A |
"G"B3 G2"(G7)"G | "C"c2c c2c | "G"B2B d2d | "C"d2c "D7"B2"FINE"A |\
"G"G3 B2c | "G"d3- d2B | "G"G3- G2G :|
